static/src/inline-svgs/icon/instagram.svg

<svg width="7.8" height="7.8" viewBox="0 0 7.8 7.8">
    <path
        d="M6.9 3.3h-.7c0 .2.1.4.1.6 0 1.3-1.1 2.4-2.4 2.4-1.3 0-2.4-1.1-2.4-2.4 0-.2 0-.4.1-.6H.9v3.3c0 .2.1.3.3.3h5.4c.2 0 .3-.1.3-.3V3.3zm0-2.1c0-.2-.1-.3-.3-.3h-.9c-.2 0-.3.1-.3.3v.9c0 .2.1.3.3.3h.9c.2 0 .3-.1.3-.3v-.9zm-3 1.2c-.8 0-1.5.7-1.5 1.5s.7 1.5 1.5 1.5 1.5-.7 1.5-1.5-.7-1.5-1.5-1.5m3 5.4h-6c-.5 0-.9-.4-.9-.9v-6C0 .4.4 0 .9 0h6c.5 0 .9.4.9.9v6c0 .5-.4.9-.9.9"/>
</svg>

<?xml version="1.0" encoding="utf-8"?>
<!-- Generator: Adobe Illustrator 16.0.1, SVG Export Plug-In . SVG Version: 6.00 Build 0)  -->
<!DOCTYPE svg PUBLIC "-//W3C//DTD SVG 1.1//EN" "http://www.w3.org/Graphics/SVG/1.1/DTD/svg11.dtd">
<svg version="1.1" id="Layer_1" xmlns="http://www.w3.org/2000/svg" xmlns:xlink="http://www.w3.org/1999/xlink" x="0px" y="0px"
	 width="7.8px" height="7.8px" viewBox="0 0 7.8 7.8" enable-background="new 0 0 7.8 7.8" xml:space="preserve">
<path d="M6.9,3.3H6.2c0,0.2,0.1,0.4,0.1,0.6c0,1.3-1.1,2.4-2.4,2.4c-1.3,0-2.4-1.1-2.4-2.4c0-0.2,0-0.4,0.1-0.6H0.9v3.3
	c0,0.2,0.1,0.3,0.3,0.3h5.4c0.2,0,0.3-0.1,0.3-0.3V3.3L6.9,3.3z M6.9,1.2c0-0.2-0.1-0.3-0.3-0.3H5.7C5.5,0.9,5.4,1,5.4,1.2v0.9
	c0,0.2,0.1,0.3,0.3,0.3h0.9c0.2,0,0.3-0.1,0.3-0.3V1.2z M3.9,2.4c-0.8,0-1.5,0.7-1.5,1.5c0,0.8,0.7,1.5,1.5,1.5
	c0.8,0,1.5-0.7,1.5-1.5C5.4,3.1,4.7,2.4,3.9,2.4 M6.9,7.8h-6C0.4,7.8,0,7.4,0,6.9v-6C0,0.4,0.4,0,0.9,0h6c0.5,0,0.9,0.4,0.9,0.9v6
	C7.8,7.4,7.4,7.8,6.9,7.8"/>
</svg>
